packages/symbols/svgs/outline/document-copy-outline.svg

<svg width="24" height="24" viewBox="0 0 24 24" fill="none" xmlns="http://www.w3.org/2000/svg">
<path fill-rule="evenodd" clip-rule="evenodd" d="M1 5C1 4.44772 1.44772 4 2 4H18C18.5523 4 19 4.44772 19 5V23C19 23.5523 18.5523 24 18 24H2C1.44772 24 1 23.5523 1 23V5ZM3 6V22H17V6H3Z" fill="black"/>
<path fill-rule="evenodd" clip-rule="evenodd" d="M4 1C4 0.447715 4.44772 0 5 0H22C22.5523 0 23 0.447715 23 1V21C23 21.5523 22.5523 22 22 22C21.4477 22 21 21.5523 21 21V2H5C4.44772 2 4 1.55228 4 1Z" fill="black"/>
</svg>

<svg width="24" height="24" viewBox="0 0 24 24" xmlns="http://www.w3.org/2000/svg"><path fill-rule="evenodd" clip-rule="evenodd" d="M1 5a1 1 0 0 1 1-1h16a1 1 0 0 1 1 1v18a1 1 0 0 1-1 1H2a1 1 0 0 1-1-1V5Zm2 1v16h14V6H3Z"/><path fill-rule="evenodd" clip-rule="evenodd" d="M4 1a1 1 0 0 1 1-1h17a1 1 0 0 1 1 1v20a1 1 0 1 1-2 0V2H5a1 1 0 0 1-1-1Z"/></svg>
